X:31
T:Hunting The Hare,aka. TBe.031
M:3/4
L:1/8
Q:1/4=200
C:untitled in ms
S:Thomas Bennet MS,1718, VWML
R:.minuet
O:England
N:= and ‘ are as shown in MS. E represents something like a backwards
N:’3’ skewered on the leger line.
N:.CGP
H:1718
Z:vmp.C. Graebe..
K:D major
“_see notes”d4 A2 | B2 g2 (fg) | “^=”e4 d2 |\
edcB A2 | d4 A2 | B2g2f2 | “^'”e2d2 “^=”c2 | d6 ||!
“^=”f4 g2 | a2e2a2 | “^=”f4g2 | “^E”a2 e2 a2 |\
“^=”f4 g2 | “^E”a2 (gf)(ed)| (cd) (“^=”d3 c/d/) | e6 |]

